app/assets/images/icons/ziplock-blue.svg

<svg width="50" height="50" viewBox="0 0 50 50" xmlns="http://www.w3.org/2000/svg" xmlns:xlink="http://www.w3.org/1999/xlink"><defs><path id="a" d="M0 49.968h49.88V.12H0z"/></defs><g fill="none" fill-rule="evenodd"><mask id="b" fill="#fff"><use xlink:href="#a"/></mask><path d="M47.98 5.345H1.9V2.02h46.081v3.325zM1.9 48.101h46.08V12.663H1.9V48.1zm0-39.532h46.081V6.296H1.901v2.273zm0 2.194h46.08V9.519H1.9v1.244zM0 50h49.88V.12H0V50z" fill="#0071BC" mask="url(#b)"/><path d="M10.138 42.33a2.533 2.533 0 1 1-5.065 0 2.533 2.533 0 0 1 5.065 0m6.842-5.954a3.421 3.421 0 1 1-6.842 0 3.421 3.421 0 0 1 6.842 0m12.434-1.711a3.947 3.947 0 1 1-7.893.001 3.947 3.947 0 0 1 7.893 0m-6.151 8.272a3.142 3.142 0 1 1-6.283 0 3.142 3.142 0 0 1 6.283 0m9.835-.51a1.842 1.842 0 1 1-3.684 0 1.842 1.842 0 0 1 3.684 0m7.369-2.368a3.684 3.684 0 1 1-7.369 0 3.684 3.684 0 0 1 7.369 0m5.343 6.422a1.62 1.62 0 1 1-3.239-.002 1.62 1.62 0 0 1 3.239.002m1.696-16.586a3.52 3.52 0 1 1-7.039 0 3.52 3.52 0 0 1 7.04 0m-19.014 16.48a1.513 1.513 0 1 1-3.026 0 1.513 1.513 0 0 1 3.026 0m9.803-15.56a2.599 2.599 0 1 1-5.198 0 2.599 2.599 0 0 1 5.198 0m-17.434-.69a2.829 2.829 0 1 1-5.658 0 2.829 2.829 0 0 1 5.658 0m-9.079.855a3.684 3.684 0 1 1-7.369 0 3.684 3.684 0 0 1 7.369 0" fill="#0071BC"/><path d="M42.177 26.902a1.513 1.513 0 1 1-3.026 0 1.513 1.513 0 0 1 3.026 0M14.809 44.27a1.513 1.513 0 1 1-3.026 0 1.513 1.513 0 0 1 3.026 0" fill="#0071BC"/></g></svg>

<svg width="50" height="50" viewBox="0 0 50 50" xmlns="http://www.w3.org/2000/svg" xmlns:xlink="http://www.w3.org/1999/xlink"><defs><path id="a" d="M0 49.968h49.88V.12H0z"/></defs><g fill="none" fill-rule="evenodd"><g><mask id="b" fill="#fff"><use xlink:href="#a"/></mask><path d="M47.98 5.345H1.9V2.02h46.081v3.325zM1.9 48.101h46.08V12.663H1.9V48.1zm0-39.532h46.081V6.296H1.901v2.273zm0 2.194h46.08V9.519H1.9v1.244zM0 50h49.88V.12H0V50z" fill="#0071BC" mask="url(#b)"/></g><path d="M10.138 42.33a2.533 2.533 0 1 1-5.065 0 2.533 2.533 0 0 1 5.065 0M16.98 36.376a3.421 3.421 0 1 1-6.842 0 3.421 3.421 0 0 1 6.842 0M29.414 34.665a3.947 3.947 0 1 1-7.893.001 3.947 3.947 0 0 1 7.893 0M23.263 42.938a3.142 3.142 0 1 1-6.283 0 3.142 3.142 0 0 1 6.283 0M33.098 42.428a1.842 1.842 0 1 1-3.684 0 1.842 1.842 0 0 1 3.684 0M40.467 40.06a3.684 3.684 0 1 1-7.369 0 3.684 3.684 0 0 1 7.369 0M45.81 46.482a1.62 1.62 0 1 1-3.239-.002 1.62 1.62 0 0 1 3.239.002M47.506 29.896a3.52 3.52 0 1 1-7.039 0 3.52 3.52 0 0 1 7.04 0M28.493 46.376a1.513 1.513 0 1 1-3.026 0 1.513 1.513 0 0 1 3.026 0M38.296 30.816a2.599 2.599 0 1 1-5.198 0 2.599 2.599 0 0 1 5.198 0M20.862 30.126a2.829 2.829 0 1 1-5.658 0 2.829 2.829 0 0 1 5.658 0M11.783 30.981a3.684 3.684 0 1 1-7.369 0 3.684 3.684 0 0 1 7.369 0" fill="#0071BC"/><path d="M42.177 26.902a1.513 1.513 0 1 1-3.026 0 1.513 1.513 0 0 1 3.026 0M14.809 44.27a1.513 1.513 0 1 1-3.026 0 1.513 1.513 0 0 1 3.026 0" fill="#0071BC"/></g></svg>
